packages/radix-icons/outline/15/bookmark.svg

<svg width="15" height="15" fill="none" xmlns="http://www.w3.org/2000/svg">
  <path
    fill-rule="evenodd"
    clip-rule="evenodd"
    d="M4 2.5C4 2.22386 4.22386 2 4.5 2H10.5C10.7761 2 11 2.22386 11 2.5V12.5C11 12.694 10.8878 12.8705 10.7121 12.9528C10.5364 13.0351 10.3289 13.0083 10.1799 12.8841L7.5 10.6509L4.82009 12.8841C4.67105 13.0083 4.46361 13.0351 4.28792 12.9528C4.11223 12.8705 4 12.694 4 12.5V2.5ZM5 3V11.4325L7.17991 9.61589C7.36533 9.46137 7.63467 9.46137 7.82009 9.61589L10 11.4325V3H5Z"
    fill="currentColor"
  />
</svg>

<svg width="15" height="15" fill="none" xmlns="http://www.w3.org/2000/svg">
  <path
    fill-rule="evenodd"
    clip-rule="evenodd"
    d="M4 2.5a.5.5 0 01.5-.5h6a.5.5 0 01.5.5v10a.5.5 0 01-.82.384L7.5 10.651l-2.68 2.233A.5.5 0 014 12.5v-10zM5 3v8.432l2.18-1.816a.5.5 0 01.64 0L10 11.432V3H5z"
    fill="currentColor"
  />
</svg>
